fs/book_contacts_28_filled.svg

<svg viewBox="0 0 28 28" fill="none" xmlns="http://www.w3.org/2000/svg" height="1em" width="1em">
  <path d="M7.75 2.5C5.95508 2.5 4.5 3.95507 4.5 5.75V22.25C4.5 24.0449 5.95507 25.5 7.75 25.5H22.75C23.1642 25.5 23.5 25.1642 23.5 24.75C23.5 24.3358 23.1642 24 22.75 24H7.75C6.86838 24 6.13903 23.3481 6.01772 22.5H22.75C23.1642 22.5 23.5 22.1642 23.5 21.75V5.75C23.5 3.95507 22.0449 2.5 20.25 2.5H7.75ZM16 10.9971C16 12.1033 15.105 13 14 13C12.895 13 12 12.1033 12 10.9971C12 9.89086 12.895 9 14 9C15.105 9 16 9.89086 16 10.9971ZM17.5 14.8125V15.3536C17.5 16.4375 16.0104 17.25 14 17.25C11.9895 17.25 10.5 16.4375 10.5 15.3536V14.8125C10.5 14.3638 10.8616 14 11.3077 14H16.6923C17.1384 14 17.5 14.3638 17.5 14.8125Z" fill="#212121"/>
</svg>

<svg viewBox="0 0 28 28" fill="none" xmlns="http://www.w3.org/2000/svg" height="1em" width="1em">
  <path d="M7.75 2.5A3.25 3.25 0 0 0 4.5 5.75v16.5a3.25 3.25 0 0 0 3.25 3.25h15a.75.75 0 0 0 0-1.5h-15a1.75 1.75 0 0 1-1.732-1.5H22.75a.75.75 0 0 0 .75-.75v-16a3.25 3.25 0 0 0-3.25-3.25H7.75ZM16 10.997a2.001 2.001 0 1 1-4.002.004A2.001 2.001 0 0 1 16 10.997Zm1.5 3.816v.54c0 1.085-1.49 1.897-3.5 1.897s-3.5-.813-3.5-1.896v-.541a.81.81 0 0 1 .808-.813h5.384a.81.81 0 0 1 .808.813Z" fill="#212121"/>
</svg>
